assets/filters/xmp/Cinestill 800T #1 (Daylight).xmp
<x:xmpmeta xmlns:x="adobe:ns:meta/" x:xmptk="Adobe XMP Core 7.0-c000 1.000000, 0000/00/00-00:00:00        ">
 <rdf:RDF xmlns:rdf="http://www.w3.org/1999/02/22-rdf-syntax-ns#">
  <rdf:Description rdf:about=""
    xmlns:crs="http://ns.adobe.com/camera-raw-settings/1.0/"
   crs:PresetType="Normal"
   crs:Cluster=""
   crs:UUID="38D592A244A74977906D7101C626F2CB"
   crs:SupportsAmount2="True"
   crs:SupportsAmount="True"
   crs:SupportsColor="True"
   crs:SupportsMonochrome="True"
   crs:SupportsHighDynamicRange="True"
   crs:SupportsNormalDynamicRange="True"
   crs:SupportsSceneReferred="True"
   crs:SupportsOutputReferred="True"
   crs:RequiresRGBTables="False"
   crs:CameraModelRestriction=""
   crs:Copyright=""
   crs:ContactInfo=""
   crs:Version="17.0"
   crs:CompatibleVersion="268435456"
   crs:ProcessVersion="15.4"
   crs:WhiteBalance="Custom"
   crs:Temperature="5122"
   crs:Tint="+15"
   crs:Exposure2012="0.00"
   crs:Contrast2012="0"
   crs:Highlights2012="-53"
   crs:Shadows2012="+23"
   crs:Whites2012="-31"
   crs:Blacks2012="-40"
   crs:Texture="0"
   crs:Clarity2012="0"
   crs:Dehaze="0"
   crs:Vibrance="-9"
   crs:Saturation="0"
   crs:ParametricShadows="-16"
   crs:ParametricDarks="0"
   crs:ParametricLights="+57"
   crs:ParametricHighlights="+4"
   crs:ParametricShadowSplit="16"
   crs:ParametricMidtoneSplit="41"
   crs:ParametricHighlightSplit="75"
   crs:Sharpness="0"
   crs:LuminanceSmoothing="0"
   crs:ColorNoiseReduction="0"
   crs:HueAdjustmentRed="+35"
   crs:HueAdjustmentOrange="+9"
   crs:HueAdjustmentYellow="0"
   crs:HueAdjustmentGreen="+9"
   crs:HueAdjustmentAqua="0"
   crs:HueAdjustmentBlue="+13"
   crs:HueAdjustmentPurple="0"
   crs:HueAdjustmentMagenta="0"
   crs:SaturationAdjustmentRed="-18"
   crs:SaturationAdjustmentOrange="-9"
   crs:SaturationAdjustmentYellow="-13"
   crs:SaturationAdjustmentGreen="-48"
   crs:SaturationAdjustmentAqua="-44"
   crs:SaturationAdjustmentBlue="-13"
   crs:SaturationAdjustmentPurple="-35"
   crs:SaturationAdjustmentMagenta="-18"
   crs:LuminanceAdjustmentRed="-26"
   crs:LuminanceAdjustmentOrange="-13"
   crs:LuminanceAdjustmentYellow="-35"
   crs:LuminanceAdjustmentGreen="-9"
   crs:LuminanceAdjustmentAqua="-18"
   crs:LuminanceAdjustmentBlue="-22"
   crs:LuminanceAdjustmentPurple="-13"
   crs:LuminanceAdjustmentMagenta="-35"
   crs:SplitToningShadowHue="286"
   crs:SplitToningShadowSaturation="22"
   crs:SplitToningHighlightHue="0"
   crs:SplitToningHighlightSaturation="0"
   crs:SplitToningBalance="0"
   crs:ColorGradeMidtoneHue="0"
   crs:ColorGradeMidtoneSat="0"
   crs:ColorGradeShadowLum="0"
   crs:ColorGradeMidtoneLum="0"
   crs:ColorGradeHighlightLum="0"
   crs:ColorGradeBlending="50"
   crs:ColorGradeGlobalHue="0"
   crs:ColorGradeGlobalSat="0"
   crs:ColorGradeGlobalLum="0"
   crs:AutoLateralCA="1"
   crs:LensProfileEnable="0"
   crs:LensManualDistortionAmount="0"
   crs:VignetteAmount="0"
   crs:DefringePurpleAmount="0"
   crs:DefringePurpleHueLo="30"
   crs:DefringePurpleHueHi="70"
   crs:DefringeGreenAmount="0"
   crs:DefringeGreenHueLo="40"
   crs:DefringeGreenHueHi="60"
   crs:GrainAmount="5"
   crs:GrainSize="25"
   crs:GrainFrequency="54"
   crs:PostCropVignetteAmount="0"
   crs:ShadowTint="0"
   crs:RedHue="-13"
   crs:RedSaturation="+27"
   crs:GreenHue="+30"
   crs:GreenSaturation="+42"
   crs:BlueHue="-9"
   crs:BlueSaturation="0"
   crs:CurveRefineSaturation="100"
   crs:ConvertToGrayscale="False"
   crs:OverrideLookVignette="False"
   crs:ToneCurveName2012="Custom"
   crs:CameraProfile="Default Color"
   crs:HasSettings="True"
   crs:CropConstrainToWarp="0">
   <crs:Name>
    <rdf:Alt>
     <rdf:li xml:lang="x-default">Cinestill 800T #1 (Daylight)</rdf:li>
    </rdf:Alt>
   </crs:Name>
   <crs:ShortName>
    <rdf:Alt>
     <rdf:li xml:lang="x-default"/>
    </rdf:Alt>
   </crs:ShortName>
   <crs:SortName>
    <rdf:Alt>
     <rdf:li xml:lang="x-default"/>
    </rdf:Alt>
   </crs:SortName>
   <crs:Group>
    <rdf:Alt>
     <rdf:li xml:lang="x-default">Color Test Cinestill 800T</rdf:li>
    </rdf:Alt>
   </crs:Group>
   <crs:Description>
    <rdf:Alt>
     <rdf:li xml:lang="x-default"/>
    </rdf:Alt>
   </crs:Description>
   <crs:ToneCurvePV2012>
    <rdf:Seq>
     <rdf:li>0, 5</rdf:li>
     <rdf:li>113, 140</rdf:li>
     <rdf:li>255, 234</rdf:li>
    </rdf:Seq>
   </crs:ToneCurvePV2012>
   <crs:ToneCurvePV2012Red>
    <rdf:Seq>
     <rdf:li>0, 0</rdf:li>
     <rdf:li>131, 122</rdf:li>
     <rdf:li>255, 250</rdf:li>
    </rdf:Seq>
   </crs:ToneCurvePV2012Red>
   <crs:ToneCurvePV2012Green>
    <rdf:Seq>
     <rdf:li>1, 0</rdf:li>
     <rdf:li>127, 124</rdf:li>
     <rdf:li>255, 248</rdf:li>
    </rdf:Seq>
   </crs:ToneCurvePV2012Green>
   <crs:ToneCurvePV2012Blue>
    <rdf:Seq>
     <rdf:li>18, 0</rdf:li>
     <rdf:li>136, 127</rdf:li>
     <rdf:li>248, 255</rdf:li>
    </rdf:Seq>
   </crs:ToneCurvePV2012Blue>
   <crs:PointColors>
    <rdf:Seq>
     <rdf:li>0.587066, 0.708681, 0.494594, 0.030000, 0.000000, 0.000000, 0.500000, 0.000000, 0.330000, 0.670000, 1.000000, 0.000000, 0.530000, 0.890000, 1.000000, 0.000000, 0.550000, 0.910000, 1.000000</rdf:li>
     <rdf:li>1.135870, 0.587171, 0.102548, -0.130000, 0.060000, 0.000000, 0.500000, 0.000000, 0.330000, 0.670000, 1.000000, 0.000000, 0.410000, 0.770000, 1.000000, 0.000000, 0.170000, 0.530000, 1.000000</rdf:li>
     <rdf:li>1.099200, 0.829143, 0.547456, 0.190000, -0.090000, 0.000000, 0.500000, 0.000000, 0.330000, 0.670000, 1.000000, 0.100000, 0.650000, 1.000000, 1.000000, 0.040000, 0.590000, 0.950000, 1.000000</rdf:li>
     <rdf:li>1.031190, 0.726636, 0.569526, 0.040000, 0.000000, 0.000000, 0.500000, 0.000000, 0.330000, 0.670000, 1.000000, 0.000000, 0.550000, 0.910000, 1.000000, 0.050000, 0.600000, 0.960000, 1.000000</rdf:li>
    </rdf:Seq>
   </crs:PointColors>
   <crs:LensBlur
    crs:Version="1"
    crs:Active="false"
    crs:FocalRange="0 0 100 100"
    crs:BlurAmount="50"
    crs:BokehShape="0"
    crs:BokehShapeDetail="0"
    crs:HighlightsThreshold="50"
    crs:HighlightsBoost="50"
    crs:CatEyeAmount="0"
    crs:CatEyeScale="100"
    crs:BokehAspect="0"
    crs:BokehRotation="0"
    crs:SphericalAberration="0"/>
  </rdf:Description>
 </rdf:RDF>
</x:xmpmeta>
