assets/filters/xmp/PORTRA 160 #1.xmp
<x:xmpmeta xmlns:x="adobe:ns:meta/" x:xmptk="Adobe XMP Core 7.0-c000 1.000000, 0000/00/00-00:00:00        ">
 <rdf:RDF xmlns:rdf="http://www.w3.org/1999/02/22-rdf-syntax-ns#">
  <rdf:Description rdf:about=""
    xmlns:crs="http://ns.adobe.com/camera-raw-settings/1.0/"
   crs:PresetType="Normal"
   crs:Cluster=""
   crs:UUID="1AA1A6145BF84B87B8ECC7291BDC9BCC"
   crs:SupportsAmount2="True"
   crs:SupportsAmount="True"
   crs:SupportsColor="True"
   crs:SupportsMonochrome="True"
   crs:SupportsHighDynamicRange="True"
   crs:SupportsNormalDynamicRange="True"
   crs:SupportsSceneReferred="True"
   crs:SupportsOutputReferred="True"
   crs:RequiresRGBTables="False"
   crs:CameraModelRestriction=""
   crs:Copyright=""
   crs:ContactInfo=""
   crs:Version="17.0"
   crs:CompatibleVersion="268435456"
   crs:ProcessVersion="15.4"
   crs:WhiteBalance="As Shot"
   crs:IncrementalTemperature="0"
   crs:IncrementalTint="0"
   crs:Exposure2012="0.00"
   crs:Contrast2012="+5"
   crs:Highlights2012="-14"
   crs:Shadows2012="+30"
   crs:Whites2012="+10"
   crs:Blacks2012="-21"
   crs:Texture="+3"
   crs:Clarity2012="-23"
   crs:Dehaze="-1"
   crs:Vibrance="0"
   crs:Saturation="+15"
   crs:ParametricShadows="+10"
   crs:ParametricDarks="-3"
   crs:ParametricLights="+21"
   crs:ParametricHighlights="-18"
   crs:ParametricShadowSplit="25"
   crs:ParametricMidtoneSplit="50"
   crs:ParametricHighlightSplit="75"
   crs:Sharpness="0"
   crs:LuminanceSmoothing="0"
   crs:ColorNoiseReduction="0"
   crs:HueAdjustmentRed="+11"
   crs:HueAdjustmentOrange="+13"
   crs:HueAdjustmentYellow="+4"
   crs:HueAdjustmentGreen="+17"
   crs:HueAdjustmentAqua="0"
   crs:HueAdjustmentBlue="0"
   crs:HueAdjustmentPurple="+10"
   crs:HueAdjustmentMagenta="+61"
   crs:SaturationAdjustmentRed="-22"
   crs:SaturationAdjustmentOrange="-17"
   crs:SaturationAdjustmentYellow="-36"
   crs:SaturationAdjustmentGreen="-49"
   crs:SaturationAdjustmentAqua="-9"
   crs:SaturationAdjustmentBlue="-23"
   crs:SaturationAdjustmentPurple="-14"
   crs:SaturationAdjustmentMagenta="-32"
   crs:LuminanceAdjustmentRed="-16"
   crs:LuminanceAdjustmentOrange="-14"
   crs:LuminanceAdjustmentYellow="+11"
   crs:LuminanceAdjustmentGreen="-28"
   crs:LuminanceAdjustmentAqua="-16"
   crs:LuminanceAdjustmentBlue="-9"
   crs:LuminanceAdjustmentPurple="-6"
   crs:LuminanceAdjustmentMagenta="+29"
   crs:SplitToningShadowHue="161"
   crs:SplitToningShadowSaturation="2"
   crs:SplitToningHighlightHue="31"
   crs:SplitToningHighlightSaturation="2"
   crs:SplitToningBalance="0"
   crs:ColorGradeMidtoneHue="41"
   crs:ColorGradeMidtoneSat="5"
   crs:ColorGradeShadowLum="0"
   crs:ColorGradeMidtoneLum="0"
   crs:ColorGradeHighlightLum="0"
   crs:ColorGradeBlending="100"
   crs:ColorGradeGlobalHue="84"
   crs:ColorGradeGlobalSat="7"
   crs:ColorGradeGlobalLum="0"
   crs:AutoLateralCA="0"
   crs:LensProfileEnable="0"
   crs:LensManualDistortionAmount="0"
   crs:VignetteAmount="0"
   crs:DefringePurpleAmount="0"
   crs:DefringePurpleHueLo="30"
   crs:DefringePurpleHueHi="70"
   crs:DefringeGreenAmount="0"
   crs:DefringeGreenHueLo="40"
   crs:DefringeGreenHueHi="60"
   crs:GrainAmount="18"
   crs:GrainSize="42"
   crs:GrainFrequency="50"
   crs:PostCropVignetteAmount="0"
   crs:ShadowTint="0"
   crs:RedHue="0"
   crs:RedSaturation="0"
   crs:GreenHue="0"
   crs:GreenSaturation="0"
   crs:BlueHue="0"
   crs:BlueSaturation="0"
   crs:CurveRefineSaturation="100"
   crs:ConvertToGrayscale="False"
   crs:OverrideLookVignette="False"
   crs:ToneCurveName2012="Custom"
   crs:CameraProfile="Default Color"
   crs:HasSettings="True"
   crs:CropConstrainToWarp="0">
   <crs:Name>
    <rdf:Alt>
     <rdf:li xml:lang="x-default">PORTRA 160 #1</rdf:li>
    </rdf:Alt>
   </crs:Name>
   <crs:ShortName>
    <rdf:Alt>
     <rdf:li xml:lang="x-default"/>
    </rdf:Alt>
   </crs:ShortName>
   <crs:SortName>
    <rdf:Alt>
     <rdf:li xml:lang="x-default"/>
    </rdf:Alt>
   </crs:SortName>
   <crs:Group>
    <rdf:Alt>
     <rdf:li xml:lang="x-default">Color Test Portra 160</rdf:li>
    </rdf:Alt>
   </crs:Group>
   <crs:Description>
    <rdf:Alt>
     <rdf:li xml:lang="x-default"/>
    </rdf:Alt>
   </crs:Description>
   <crs:ToneCurvePV2012>
    <rdf:Seq>
     <rdf:li>0, 9</rdf:li>
     <rdf:li>20, 25</rdf:li>
     <rdf:li>42, 42</rdf:li>
     <rdf:li>93, 93</rdf:li>
     <rdf:li>132, 140</rdf:li>
     <rdf:li>210, 210</rdf:li>
     <rdf:li>255, 242</rdf:li>
    </rdf:Seq>
   </crs:ToneCurvePV2012>
   <crs:ToneCurvePV2012Red>
    <rdf:Seq>
     <rdf:li>0, 0</rdf:li>
     <rdf:li>68, 65</rdf:li>
     <rdf:li>130, 127</rdf:li>
     <rdf:li>194, 190</rdf:li>
     <rdf:li>255, 255</rdf:li>
    </rdf:Seq>
   </crs:ToneCurvePV2012Red>
   <crs:ToneCurvePV2012Green>
    <rdf:Seq>
     <rdf:li>0, 5</rdf:li>
     <rdf:li>34, 32</rdf:li>
     <rdf:li>65, 61</rdf:li>
     <rdf:li>127, 126</rdf:li>
     <rdf:li>201, 198</rdf:li>
     <rdf:li>255, 250</rdf:li>
    </rdf:Seq>
   </crs:ToneCurvePV2012Green>
   <crs:ToneCurvePV2012Blue>
    <rdf:Seq>
     <rdf:li>0, 2</rdf:li>
     <rdf:li>131, 129</rdf:li>
     <rdf:li>255, 249</rdf:li>
    </rdf:Seq>
   </crs:ToneCurvePV2012Blue>
   <crs:PointColors>
    <rdf:Seq>
     <rdf:li>0.129322, 0.857500, 0.456946, 0.160000, 0.000000, -0.080000, 0.210000, 0.140000, 0.330000, 0.550000, 0.690000, 0.370000, 0.680000, 1.000000, 1.000000, 0.000000, 0.530000, 0.890000, 1.000000</rdf:li>
     <rdf:li>5.996610, 0.316800, 0.231717, 0.110000, 0.140000, 0.040000, 0.490000, 0.210000, 0.340000, 0.700000, 0.790000, 0.000000, 0.210000, 0.420000, 0.460000, 0.040000, 0.380000, 0.740000, 1.000000</rdf:li>
     <rdf:li>3.574450, 0.253604, 0.580252, 0.170000, -0.240000, 0.140000, 0.500000, 0.000000, 0.330000, 0.670000, 1.000000, 0.000000, 0.070000, 0.430000, 0.980000, 0.060000, 0.610000, 0.970000, 1.000000</rdf:li>
     <rdf:li>3.789230, 0.355508, 0.531436, -0.180000, 0.210000, 0.080000, 0.140000, 0.230000, 0.490000, 0.760000, 1.000000, 0.000000, 0.180000, 0.540000, 1.000000, 0.280000, 0.620000, 0.940000, 1.000000</rdf:li>
     <rdf:li>3.545250, 0.331131, 0.739483, -0.330000, 0.110000, -0.110000, 0.370000, 0.000000, 0.280000, 0.560000, 0.710000, 0.000000, 0.150000, 0.510000, 1.000000, 0.000000, 0.700000, 1.000000, 1.000000</rdf:li>
     <rdf:li>0.513165, 0.829099, 0.641643, -0.090000, -0.160000, -0.070000, 0.500000, 0.000000, 0.330000, 0.670000, 1.000000, 0.100000, 0.650000, 1.000000, 1.000000, 0.090000, 0.640000, 1.000000, 1.000000</rdf:li>
     <rdf:li>0.645380, 0.387648, 0.236314, -0.140000, 0.140000, -0.090000, 0.230000, 0.280000, 0.420000, 0.510000, 0.680000, 0.180000, 0.340000, 0.440000, 0.630000, 0.000000, 0.400000, 0.590000, 1.000000</rdf:li>
     <rdf:li>0.944166, 0.689754, 0.152800, 0.000000, 0.180000, 0.090000, 0.330000, 0.220000, 0.410000, 0.560000, 0.720000, 0.330000, 0.510000, 0.870000, 1.000000, 0.000000, 0.250000, 0.610000, 1.000000</rdf:li>
    </rdf:Seq>
   </crs:PointColors>
   <crs:LensBlur
    crs:Version="1"
    crs:Active="false"
    crs:FocalRange="0 0 100 100"
    crs:BlurAmount="50"
    crs:BokehShape="0"
    crs:BokehShapeDetail="0"
    crs:HighlightsThreshold="50"
    crs:HighlightsBoost="50"
    crs:CatEyeAmount="0"
    crs:CatEyeScale="100"
    crs:BokehAspect="0"
    crs:BokehRotation="0"
    crs:SphericalAberration="0"/>
  </rdf:Description>
 </rdf:RDF>
</x:xmpmeta>
